build/img/money.svg

<svg width="44" height="44" viewBox="0 0 44 44" fill="none" xmlns="http://www.w3.org/2000/svg">
<path d="M35.5745 30.3717H12.5435C12.0279 30.3717 11.6099 29.9537 11.6099 29.4381V18.6801C11.6099 18.1645 12.0279 17.7465 12.5435 17.7465H35.5745C36.0901 17.7465 36.5081 18.1645 36.5081 18.6801V29.4381C36.5083 29.9536 36.0903 30.3717 35.5745 30.3717Z" fill="url(#paint0_linear_1_163)"/>
<path d="M11.6352 29.0499L12.957 30.3717H35.5745C36.0901 30.3717 36.5081 29.9537 36.5081 29.4381V18.6801C36.5081 18.1645 36.0901 17.7464 35.5745 17.7464H12.5435C12.0279 17.7464 11.6099 18.1644 11.6099 18.6801V28.9956L11.6352 29.0499Z" fill="url(#paint1_linear_1_163)"/>
<path d="M34.1717 28.9714H11.1407C10.625 28.9714 10.207 28.5534 10.207 28.0378V17.2797C10.207 16.7641 10.625 16.3461 11.1407 16.3461H34.1717C34.6873 16.3461 35.1053 16.7641 35.1053 17.2797V28.0377C35.1053 28.5534 34.6873 28.9714 34.1717 28.9714Z" fill="url(#paint2_linear_1_163)"/>
<path d="M10.2322 27.6496L11.554 28.9714H34.1715C34.6871 28.9714 35.1051 28.5534 35.1051 28.0377V17.2797C35.1051 16.764 34.6871 16.3459 34.1715 16.3459H11.1407C10.625 16.3459 10.207 16.7639 10.207 17.2797V27.5952L10.2322 27.6496Z" fill="url(#paint3_linear_1_163)"/>
<path d="M32.7737 27.5709H9.74271C9.22708 27.5709 8.80908 27.1529 8.80908 26.6373V15.8793C8.80908 15.3637 9.22708 14.9457 9.74271 14.9457H32.7737C33.2894 14.9457 33.7074 15.3637 33.7074 15.8793V26.6373C33.7074 27.1529 33.2894 27.5709 32.7737 27.5709Z" fill="url(#paint4_linear_1_163)"/>
<path d="M8.83443 26.2491L10.1562 27.5709H32.7737C33.2894 27.5709 33.7074 27.1529 33.7074 26.6373V15.8793C33.7074 15.3637 33.2894 14.9457 32.7737 14.9457H9.74271C9.22708 14.9457 8.80908 15.3637 8.80908 15.8793V26.1948L8.83443 26.2491Z" fill="url(#paint5_linear_1_163)"/>
<path d="M31.4573 26.2535H8.4263C7.91067 26.2535 7.49268 25.8355 7.49268 25.3199V14.5619C7.49268 14.0463 7.91067 13.6283 8.4263 13.6283H31.4573C31.973 13.6283 32.391 14.0463 32.391 14.5619V25.3198C32.391 25.8354 31.973 26.2535 31.4573 26.2535Z" fill="url(#paint6_linear_1_163)"/>
<path d="M30.9827 16.2974C30.3071 16.2623 29.755 15.7088 29.7199 15.0333C29.7122 14.8839 29.7296 14.7398 29.7675 14.604H10.1125C10.1504 14.7396 10.1679 14.8838 10.1601 15.0333C10.1249 15.7088 9.57279 16.2623 8.89732 16.2973C8.66623 16.3093 8.44735 16.2623 8.25391 16.1704V23.7111C8.44752 23.6191 8.66658 23.5721 8.89775 23.5841C9.5733 23.6194 10.1252 24.1731 10.1601 24.8487C10.1677 24.998 10.1504 25.1419 10.1125 25.2775H29.7675C29.7296 25.142 29.7122 24.998 29.7199 24.8487C29.7548 24.1731 30.3067 23.6194 30.9822 23.5841C31.2134 23.572 31.4325 23.619 31.626 23.7111V16.1704C31.4327 16.2624 31.2137 16.3093 30.9827 16.2974Z" fill="url(#paint7_linear_1_163)"/>
<path d="M19.94 23.1735C21.7255 23.1735 23.1729 21.726 23.1729 19.9405C23.1729 18.155 21.7255 16.7076 19.94 16.7076C18.1545 16.7076 16.707 18.155 16.707 19.9405C16.707 21.726 18.1545 23.1735 19.94 23.1735Z" fill="url(#paint8_linear_1_163)"/>
<path d="M15.4964 15.7917H10.5312V17.2201H15.4964V15.7917Z" fill="url(#paint9_linear_1_163)"/>
<path d="M29.3479 22.6617H24.3828V24.09H29.3479V22.6617Z" fill="url(#paint10_linear_1_163)"/>
<path d="M42.7321 9.97251C41.8421 9.64689 40.868 10.0186 40.405 10.8083C38.9453 8.39882 37.0181 6.2907 34.6969 4.58733C30.9772 1.85813 26.5661 0.415588 21.9402 0.415588C17.3142 0.415588 12.903 1.85813 9.18345 4.58733C5.54048 7.26033 2.86646 10.9295 1.4503 15.1978C1.11454 16.2099 1.66282 17.3026 2.6749 17.6384C3.68733 17.9743 4.77977 17.4259 5.11544 16.4138C6.27791 12.91 8.47456 9.89706 11.4679 7.70067C14.5204 5.46088 18.1416 4.27693 21.9402 4.27693C25.7388 4.27693 29.3598 5.46088 32.4124 7.70076C34.1951 9.00872 35.695 10.6065 36.8623 12.4249C35.9741 12.2914 35.0847 12.795 34.7641 13.6714C34.3976 14.6729 34.9124 15.7817 35.9138 16.1481L39.9341 17.6191C39.9437 17.6227 39.9535 17.625 39.9631 17.6283C39.9969 17.6401 40.0309 17.6508 40.0653 17.6606C40.0837 17.6659 40.102 17.6713 40.1204 17.6761C40.1551 17.685 40.1901 17.6924 40.2253 17.6994C40.2433 17.7029 40.2612 17.707 40.2791 17.71C40.3165 17.7163 40.3541 17.7207 40.392 17.7249C40.4074 17.7265 40.4228 17.7291 40.4382 17.7303C40.4909 17.7347 40.5439 17.7372 40.5972 17.7372C40.5972 17.7372 40.5972 17.7372 40.5972 17.7372H40.5973C40.6474 17.7372 40.6974 17.7351 40.7469 17.7313C40.7587 17.7303 40.7705 17.7284 40.7824 17.7272C40.8205 17.7235 40.8586 17.7196 40.8963 17.7136C40.9109 17.7113 40.9254 17.7078 40.9401 17.7052C40.9753 17.6988 41.0103 17.6922 41.0449 17.6839C41.0611 17.6801 41.0772 17.6751 41.0934 17.6707C41.1263 17.662 41.1588 17.6531 41.191 17.6427C41.1958 17.6411 41.2006 17.6401 41.2055 17.6385C41.215 17.6354 41.224 17.631 41.2335 17.6277C41.2761 17.6128 41.3181 17.5966 41.3595 17.5788C41.3773 17.5713 41.395 17.5636 41.4124 17.5555C41.4527 17.5367 41.4924 17.5163 41.5314 17.4948C41.5438 17.488 41.5566 17.4819 41.5689 17.4748C41.6158 17.4476 41.6613 17.4178 41.7059 17.3866C41.7234 17.3744 41.74 17.3614 41.7568 17.3487C41.7865 17.3263 41.8157 17.3033 41.8443 17.2792C41.8599 17.266 41.8754 17.2528 41.8906 17.239C41.9231 17.2097 41.9545 17.1791 41.985 17.1476C41.9935 17.1388 42.0026 17.1305 42.0108 17.1215C42.0506 17.0788 42.0887 17.0342 42.1247 16.9876C42.1272 16.9843 42.1294 16.9809 42.1319 16.9776C42.164 16.9355 42.1944 16.8917 42.2232 16.8466C42.2308 16.8344 42.2381 16.8221 42.2455 16.8099C42.2678 16.7732 42.2888 16.7359 42.3089 16.6975C42.317 16.6816 42.3253 16.6659 42.333 16.6498C42.3505 16.6138 42.3665 16.5771 42.3819 16.5396C42.389 16.5222 42.3967 16.5051 42.4033 16.4876C42.4055 16.4816 42.4084 16.4758 42.4106 16.4697L43.8817 12.4495C44.2482 11.4479 43.7334 10.3389 42.7321 9.97251Z" fill="url(#paint11_linear_1_163)"/>
<path d="M1.26782 34.0273C2.15778 34.3529 3.13188 33.9813 3.59491 33.1915C5.05465 35.601 6.98179 37.7091 9.30304 39.4125C13.0226 42.1417 17.4338 43.5844 22.0598 43.5844C26.6857 43.5844 31.0969 42.1418 34.8165 39.4125C38.4594 36.7395 41.1335 33.0704 42.5497 28.802C42.8855 27.7899 42.3372 26.6972 41.3251 26.3615C40.3127 26.0256 39.2202 26.574 38.8846 27.5861C37.7221 31.0898 35.5254 34.1028 32.5321 36.2992C29.4796 38.5389 25.8584 39.7229 22.0598 39.7229C18.2612 39.7229 14.6402 38.539 11.5876 36.2992C9.80492 34.9912 8.30497 33.3934 7.13768 31.575C8.02593 31.7085 8.91529 31.2049 9.23593 30.3285C9.60245 29.3272 9.0876 28.2182 8.08617 27.8518L4.06594 26.3808C4.05631 26.3773 4.04652 26.375 4.03689 26.3716C4.00312 26.3598 3.96909 26.3492 3.93471 26.3393C3.91632 26.334 3.89802 26.3286 3.87963 26.3238C3.84491 26.315 3.80993 26.3075 3.7747 26.3005C3.75673 26.297 3.73877 26.2929 3.7209 26.2899C3.68352 26.2836 3.64588 26.2792 3.60798 26.275C3.59259 26.2734 3.57721 26.2708 3.56183 26.2696C3.50915 26.2652 3.45613 26.2627 3.40284 26.2627C3.40284 26.2627 3.40285 26.2627 3.40276 26.2627H3.40267C3.35257 26.2627 3.30264 26.2648 3.25314 26.2686C3.24128 26.2696 3.22951 26.2716 3.21765 26.2727C3.17949 26.2764 3.14142 26.2803 3.1037 26.2863C3.08909 26.2887 3.07456 26.2921 3.05987 26.2948C3.02472 26.3011 2.98974 26.3077 2.95511 26.316C2.93887 26.3199 2.9228 26.3249 2.90656 26.3292C2.87381 26.3379 2.84116 26.3469 2.80902 26.3572C2.80421 26.3588 2.79939 26.3598 2.79449 26.3614C2.78496 26.3646 2.77602 26.3689 2.76648 26.3722C2.72394 26.3872 2.68192 26.4033 2.64049 26.4211C2.62271 26.4287 2.605 26.4363 2.58764 26.4444C2.54725 26.4632 2.50764 26.4836 2.46862 26.5051C2.45625 26.5119 2.44335 26.518 2.43115 26.5251C2.38423 26.5523 2.33868 26.5821 2.29408 26.6133C2.27664 26.6255 2.26005 26.6385 2.24321 26.6512C2.21347 26.6736 2.18425 26.6966 2.15572 26.7207C2.14008 26.7339 2.12461 26.7471 2.1094 26.7609C2.07692 26.7902 2.04546 26.8208 2.01496 26.8523C2.00654 26.8611 1.99743 26.8694 1.98918 26.8784C1.94939 26.9211 1.91132 26.9658 1.87531 27.0123C1.87282 27.0156 1.87058 27.0191 1.86809 27.0223C1.83604 27.0644 1.80561 27.1083 1.77682 27.1534C1.76918 27.1655 1.76187 27.1778 1.75448 27.1901C1.73222 27.2267 1.71117 27.2641 1.69115 27.3025C1.68298 27.3183 1.67473 27.334 1.667 27.3501C1.64955 27.3861 1.63348 27.4229 1.6181 27.4603C1.61097 27.4777 1.60332 27.4948 1.5967 27.5123C1.59447 27.5183 1.59163 27.5241 1.5894 27.5302L0.118148 31.5506C-0.248374 32.552 0.26639 33.661 1.26782 34.0273Z" fill="url(#paint12_radial_1_163)"/>
<defs>
<linearGradient id="paint0_linear_1_163" x1="11.6096" y1="24.0595" x2="36.5074" y2="24.0595" gradientUnits="userSpaceOnUse">
<stop stop-color="#61DB99"/>
<stop offset="1" stop-color="#009E74"/>
</linearGradient>
<linearGradient id="paint1_linear_1_163" x1="25.1839" y1="27.8652" x2="23.8777" y2="23.1176" gradientUnits="userSpaceOnUse">
<stop stop-color="#009E74" stop-opacity="0"/>
<stop offset="1" stop-color="#009E74"/>
</linearGradient>
<linearGradient id="paint2_linear_1_163" x1="10.2068" y1="22.6592" x2="35.1046" y2="22.6592" gradientUnits="userSpaceOnUse">
<stop stop-color="#61DB99"/>
<stop offset="1" stop-color="#009E74"/>
</linearGradient>
<linearGradient id="paint3_linear_1_163" x1="23.6262" y1="27.0378" x2="22.7652" y2="22.9139" gradientUnits="userSpaceOnUse">
<stop stop-color="#009E74" stop-opacity="0"/>
<stop offset="1" stop-color="#009E74"/>
</linearGradient>
<linearGradient id="paint4_linear_1_163" x1="8.80886" y1="21.2588" x2="33.7067" y2="21.2588" gradientUnits="userSpaceOnUse">
<stop stop-color="#61DB99"/>
<stop offset="1" stop-color="#009E74"/>
</linearGradient>
<linearGradient id="paint5_linear_1_163" x1="23.1313" y1="28.3975" x2="19.1274" y2="12.5432" gradientUnits="userSpaceOnUse">
<stop stop-color="#009E74" stop-opacity="0"/>
<stop offset="1" stop-color="#009E74"/>
</linearGradient>
<linearGradient id="paint6_linear_1_163" x1="7.4925" y1="19.9414" x2="32.3903" y2="19.9414" gradientUnits="userSpaceOnUse">
<stop stop-color="#A7F3CE"/>
<stop offset="1" stop-color="#61DB99"/>
</linearGradient>
<linearGradient id="paint7_linear_1_163" x1="13.4361" y1="13.4378" x2="29.2792" y2="29.2809" gradientUnits="userSpaceOnUse">
<stop stop-color="#61DB99"/>
<stop offset="1" stop-color="#009E74"/>
</linearGradient>
<linearGradient id="paint8_linear_1_163" x1="18.0157" y1="18.0172" x2="22.7028" y2="22.7044" gradientUnits="userSpaceOnUse">
<stop stop-color="#A7F3CE"/>
<stop offset="1" stop-color="#61DB99"/>
</linearGradient>
<linearGradient id="paint9_linear_1_163" x1="11.6688" y1="15.1618" x2="14.9455" y2="18.4384" gradientUnits="userSpaceOnUse">
<stop stop-color="#A7F3CE"/>
<stop offset="1" stop-color="#61DB99"/>
</linearGradient>
<linearGradient id="paint10_linear_1_163" x1="25.5196" y1="22.0312" x2="28.7963" y2="25.3078" gradientUnits="userSpaceOnUse">
<stop stop-color="#A7F3CE"/>
<stop offset="1" stop-color="#61DB99"/>
</linearGradient>
<linearGradient id="paint11_linear_1_163" x1="1.35154" y1="9.07718" x2="43.999" y2="9.07718" gradientUnits="userSpaceOnUse">
<stop stop-color="#FFB92D"/>
<stop offset="1" stop-color="#F59500"/>
</linearGradient>
<radialGradient id="paint12_radial_1_163" cx="0" cy="0" r="1" gradientUnits="userSpaceOnUse" gradientTransform="translate(22.2838 22.1382) rotate(180) scale(21.8589 21.8588)">
<stop stop-color="#BE3F45"/>
<stop offset="0.317" stop-color="#C14046"/>
<stop offset="0.538" stop-color="#CA4148"/>
<stop offset="0.729" stop-color="#D9444B"/>
<stop offset="0.902" stop-color="#EF4950"/>
<stop offset="1" stop-color="#FF4C54"/>
</radialGradient>
</defs>
</svg>

<svg width="44" height="44" fill="none" xmlns="http://www.w3.org/2000/svg"><path d="M35.575 30.372H12.543a.934.934 0 01-.933-.934V18.68c0-.515.418-.933.934-.933h23.03c.516 0 .934.418.934.933v10.758a.933.933 0 01-.934.934z" fill="url(#paint0_linear_1_163)"/><path d="M11.635 29.05l1.322 1.322h22.617a.934.934 0 00.934-.934V18.68a.934.934 0 00-.934-.934h-23.03a.934.934 0 00-.934.934v10.316l.025.054z" fill="url(#paint1_linear_1_163)"/><path d="M34.172 28.971H11.14a.934.934 0 01-.934-.933V17.28c0-.516.418-.934.934-.934h23.03c.516 0 .934.418.934.934v10.758a.934.934 0 01-.933.933z" fill="url(#paint2_linear_1_163)"/><path d="M10.232 27.65l1.322 1.321h22.617a.934.934 0 00.934-.933V17.28a.934.934 0 00-.933-.934H11.14a.934.934 0 00-.934.934v10.315l.025.055z" fill="url(#paint3_linear_1_163)"/><path d="M32.774 27.57H9.743a.934.934 0 01-.934-.933V15.88c0-.515.418-.933.934-.933h23.03c.516 0 .934.418.934.933v10.758a.934.934 0 01-.933.934z" fill="url(#paint4_linear_1_163)"/><path d="M8.834 26.25l1.322 1.32h22.618a.934.934 0 00.933-.933V15.88a.934.934 0 00-.933-.933H9.743a.934.934 0 00-.934.933v10.316l.025.054z" fill="url(#paint5_linear_1_163)"/><path d="M31.457 26.253H8.427a.934.934 0 01-.934-.933V14.562c0-.516.418-.934.933-.934h23.031c.516 0 .934.418.934.934V25.32a.934.934 0 01-.934.933z" fill="url(#paint6_linear_1_163)"/><path d="M30.983 16.297a1.345 1.345 0 01-1.263-1.264 1.35 1.35 0 01.047-.429H10.113a1.333 1.333 0 01-1.216 1.693 1.333 1.333 0 01-.643-.127v7.541a1.333 1.333 0 011.906 1.138c.008.149-.01.293-.047.428h19.654a1.333 1.333 0 01-.047-.428 1.345 1.345 0 011.262-1.265c.231-.012.45.035.644.127v-7.54a1.332 1.332 0 01-.643.126z" fill="url(#paint7_linear_1_163)"/><path d="M19.94 23.174a3.233 3.233 0 100-6.466 3.233 3.233 0 000 6.466z" fill="url(#paint8_linear_1_163)"/><path d="M15.496 15.792h-4.965v1.428h4.965v-1.428z" fill="url(#paint9_linear_1_163)"/><path d="M29.348 22.662h-4.965v1.428h4.965v-1.428z" fill="url(#paint10_linear_1_163)"/><path d="M42.732 9.973a1.93 1.93 0 00-2.327.835 21.573 21.573 0 00-5.708-6.22A21.42 21.42 0 0021.94.415 21.42 21.42 0 009.183 4.587a21.491 21.491 0 00-7.733 10.61 1.93 1.93 0 003.665 1.217A17.65 17.65 0 0111.468 7.7 17.583 17.583 0 0121.94 4.277c3.799 0 7.42 1.184 10.472 3.424a17.744 17.744 0 014.45 4.724 1.931 1.931 0 00-.948 3.723l4.02 1.471.03.01.101.032.055.015c.035.009.07.016.105.023l.054.011c.037.006.075.01.113.015l.046.005a1.956 1.956 0 00.309.001c.012 0 .023-.003.035-.004.039-.003.077-.007.114-.013l.044-.009.105-.021.048-.013.098-.028.014-.005.029-.01a1.941 1.941 0 00.297-.133l.038-.02c.047-.027.092-.057.137-.088l.05-.038a2.066 2.066 0 00.229-.201c.008-.01.018-.017.026-.026.04-.043.078-.088.114-.134l.007-.01c.032-.043.062-.086.091-.131l.023-.037c.022-.037.043-.074.063-.112l.024-.048c.017-.036.034-.073.049-.11l.021-.052.008-.018 1.47-4.02a1.931 1.931 0 00-1.149-2.477z" fill="url(#paint11_linear_1_163)"/><path d="M1.268 34.027a1.93 1.93 0 002.327-.836 21.573 21.573 0 005.708 6.221 21.42 21.42 0 0012.757 4.172 21.41 21.41 0 0012.756-4.172 21.491 21.491 0 007.734-10.61 1.93 1.93 0 10-3.665-1.216 17.65 17.65 0 01-6.353 8.713 17.583 17.583 0 01-10.472 3.424c-3.799 0-7.42-1.184-10.472-3.424a17.745 17.745 0 01-4.45-4.724 1.931 1.931 0 00.948-3.723l-4.02-1.471-.03-.01a1.919 1.919 0 00-.101-.032l-.055-.015a2.062 2.062 0 00-.105-.024l-.054-.01a2.012 2.012 0 00-.113-.015l-.046-.005a1.954 1.954 0 00-.309-.001c-.012 0-.023.003-.035.004a1.88 1.88 0 00-.114.013l-.044.009-.105.021-.048.013a2.012 2.012 0 00-.098.028l-.015.004-.028.011a2.022 2.022 0 00-.297.133l-.038.02a1.918 1.918 0 00-.137.088l-.05.038a1.998 1.998 0 00-.229.201c-.008.01-.018.017-.026.026a1.93 1.93 0 00-.114.134l-.007.01a1.939 1.939 0 00-.091.131l-.023.037a1.957 1.957 0 00-.063.112l-.024.048a1.97 1.97 0 00-.049.11l-.021.052-.008.018-1.47 4.02a1.93 1.93 0 001.149 2.477z" fill="url(#paint12_radial_1_163)"/><defs><linearGradient id="paint0_linear_1_163" x1="11.61" y1="24.059" x2="36.507" y2="24.059" gradientUnits="userSpaceOnUse"><stop stop-color="#61DB99"/><stop offset="1" stop-color="#009E74"/></linearGradient><linearGradient id="paint1_linear_1_163" x1="25.184" y1="27.865" x2="23.878" y2="23.118" gradientUnits="userSpaceOnUse"><stop stop-color="#009E74" stop-opacity="0"/><stop offset="1" stop-color="#009E74"/></linearGradient><linearGradient id="paint2_linear_1_163" x1="10.207" y1="22.659" x2="35.105" y2="22.659" gradientUnits="userSpaceOnUse"><stop stop-color="#61DB99"/><stop offset="1" stop-color="#009E74"/></linearGradient><linearGradient id="paint3_linear_1_163" x1="23.626" y1="27.038" x2="22.765" y2="22.914" gradientUnits="userSpaceOnUse"><stop stop-color="#009E74" stop-opacity="0"/><stop offset="1" stop-color="#009E74"/></linearGradient><linearGradient id="paint4_linear_1_163" x1="8.809" y1="21.259" x2="33.707" y2="21.259" gradientUnits="userSpaceOnUse"><stop stop-color="#61DB99"/><stop offset="1" stop-color="#009E74"/></linearGradient><linearGradient id="paint5_linear_1_163" x1="23.131" y1="28.398" x2="19.127" y2="12.543" gradientUnits="userSpaceOnUse"><stop stop-color="#009E74" stop-opacity="0"/><stop offset="1" stop-color="#009E74"/></linearGradient><linearGradient id="paint6_linear_1_163" x1="7.492" y1="19.941" x2="32.39" y2="19.941" gradientUnits="userSpaceOnUse"><stop stop-color="#A7F3CE"/><stop offset="1" stop-color="#61DB99"/></linearGradient><linearGradient id="paint7_linear_1_163" x1="13.436" y1="13.438" x2="29.279" y2="29.281" gradientUnits="userSpaceOnUse"><stop stop-color="#61DB99"/><stop offset="1" stop-color="#009E74"/></linearGradient><linearGradient id="paint8_linear_1_163" x1="18.016" y1="18.017" x2="22.703" y2="22.704" gradientUnits="userSpaceOnUse"><stop stop-color="#A7F3CE"/><stop offset="1" stop-color="#61DB99"/></linearGradient><linearGradient id="paint9_linear_1_163" x1="11.669" y1="15.162" x2="14.945" y2="18.438" gradientUnits="userSpaceOnUse"><stop stop-color="#A7F3CE"/><stop offset="1" stop-color="#61DB99"/></linearGradient><linearGradient id="paint10_linear_1_163" x1="25.52" y1="22.031" x2="28.796" y2="25.308" gradientUnits="userSpaceOnUse"><stop stop-color="#A7F3CE"/><stop offset="1" stop-color="#61DB99"/></linearGradient><linearGradient id="paint11_linear_1_163" x1="1.352" y1="9.077" x2="43.999" y2="9.077" gradientUnits="userSpaceOnUse"><stop stop-color="#FFB92D"/><stop offset="1" stop-color="#F59500"/></linearGradient><radialGradient id="paint12_radial_1_163" cx="0" cy="0" r="1" gradientUnits="userSpaceOnUse" gradientTransform="matrix(-21.8589 0 0 -21.8588 22.284 22.138)"><stop stop-color="#BE3F45"/><stop offset=".317" stop-color="#C14046"/><stop offset=".538" stop-color="#CA4148"/><stop offset=".729" stop-color="#D9444B"/><stop offset=".902" stop-color="#EF4950"/><stop offset="1" stop-color="#FF4C54"/></radialGradient></defs></svg>
